Resources/Icons/PCGEx_Editor_RotOrder_XZ.svg

<?xml version="1.0" encoding="UTF-8"?>
<svg id="icons" xmlns="http://www.w3.org/2000/svg" viewBox="0 0 100 100">
  <defs>
    <style>
      .cls-1 {
        fill: #cb2600;
      }

      .cls-2 {
        fill: #2c80ed;
      }

      .cls-3 {
        fill: none;
        opacity: .5;
        stroke: #000;
        stroke-miterlimit: 10;
        stroke-width: 5px;
      }
    </style>
  </defs>
  <line class="cls-3" x1="30.25" y1="50.03" x2="69.78" y2="50.03"/>
  <g>
    <path d="M24.82,67.18v-.05c-.52.85-1.37,1.93-3.01,1.93s-3.2-1.5-3.2-3.05c0-.52.24-1.22.47-1.6l8.13-12.96-7.47-11.79c-.23-.47-.37-1.08-.37-1.6,0-1.5,1.46-2.96,3.15-2.96,1.45,0,2.58,1.03,3.24,2.16l5.31,8.73,5.31-8.73c.61-.89,1.64-2.16,3.28-2.16s3.1,1.36,3.1,3.01c0,.47-.19,1.03-.42,1.55l-7.42,11.79,8.13,12.96c.23.38.47,1.08.47,1.6,0,1.55-1.55,3.05-3.14,3.05s-2.49-.99-3.06-1.88l-6.24-10.33-6.24,10.33Z"/>
    <path class="cls-1" d="M23.45,65.13v-.05c-.52.85-1.37,1.93-3.01,1.93s-3.2-1.5-3.2-3.05c0-.52.24-1.22.47-1.6l8.13-12.96-7.47-11.79c-.23-.47-.37-1.08-.37-1.6,0-1.5,1.46-2.96,3.15-2.96,1.45,0,2.58,1.03,3.24,2.16l5.31,8.73,5.31-8.73c.61-.89,1.64-2.16,3.28-2.16s3.1,1.36,3.1,3.01c0,.47-.19,1.03-.42,1.55l-7.42,11.79,8.13,12.96c.23.38.47,1.08.47,1.6,0,1.55-1.55,3.05-3.14,3.05s-2.49-.99-3.06-1.88l-6.24-10.33-6.24,10.33Z"/>
  </g>
  <g>
    <path d="M76.37,68.63h-16.1c-1.93,0-3.38-1.45-3.38-3.19,0-.61.42-1.6.66-2.07,4.6-7.61,8.64-14.09,13.29-21.79h-10.61c-1.83,0-3.24-1.32-3.24-3.01s1.41-3.05,3.24-3.05h15.92c1.97,0,3.43,1.41,3.43,3.15,0,.85-.33,1.5-.66,2.02l-13.38,21.88h10.85c1.74,0,3.29,1.32,3.29,3.01s-1.5,3.05-3.29,3.05Z"/>
    <path class="cls-2" d="M75,66.58h-16.1c-1.93,0-3.38-1.45-3.38-3.19,0-.61.42-1.6.66-2.07,4.6-7.61,8.64-14.09,13.29-21.79h-10.61c-1.83,0-3.24-1.32-3.24-3.01s1.41-3.05,3.24-3.05h15.92c1.97,0,3.43,1.41,3.43,3.15,0,.85-.33,1.5-.66,2.02l-13.38,21.88h10.85c1.74,0,3.29,1.32,3.29,3.01s-1.5,3.05-3.29,3.05Z"/>
  </g>
</svg>

<svg id="icons" xmlns="http://www.w3.org/2000/svg" viewBox="0 0 100 100">
    <defs>
        <style>
            .cls-1{fill:none;stroke:#000;stroke-miterlimit:10;stroke-width:5px;opacity:0.5;}.cls-2{fill:#cb2600;}.cls-3{fill:#2c80ed;}
        </style>
    </defs>
    <line class="cls-1" x1="30.25" y1="50.03" x2="69.78" y2="50.03"/>
    <path d="M24.82,67.18v-.05a3.45,3.45,0,0,1-3,1.93A3.27,3.27,0,0,1,18.62,66a3.44,3.44,0,0,1,.47-1.59l8.12-13L19.75,39.66a3.72,3.72,0,0,1-.38-1.6,3.19,3.19,0,0,1,3.15-3,4,4,0,0,1,3.24,2.16L31.06,46l5.31-8.74a4.15,4.15,0,0,1,3.28-2.16,3.12,3.12,0,0,1,3.11,3,4,4,0,0,1-.43,1.55L34.91,51.45l8.13,13A3.57,3.57,0,0,1,43.51,66a3.3,3.3,0,0,1-3.15,3.06,3.45,3.45,0,0,1-3-1.88L31.06,56.85Z"/>
    <path class="cls-2"
          d="M23.45,65.13v0a3.43,3.43,0,0,1-3,1.93A3.28,3.28,0,0,1,17.25,64a3.57,3.57,0,0,1,.47-1.59l8.13-13L18.38,37.61A3.87,3.87,0,0,1,18,36a3.18,3.18,0,0,1,3.15-2.95,3.93,3.93,0,0,1,3.24,2.16L29.7,44,35,35.22a4.15,4.15,0,0,1,3.29-2.16,3.11,3.11,0,0,1,3.1,3A4.14,4.14,0,0,1,41,37.61L33.55,49.4l8.12,13A3.44,3.44,0,0,1,42.14,64,3.3,3.3,0,0,1,39,67a3.47,3.47,0,0,1-3.06-1.88L29.7,54.8Z"/>
    <path d="M76.37,68.63H60.26a3.26,3.26,0,0,1-3.38-3.19,6,6,0,0,1,.65-2.07c4.61-7.6,8.65-14.08,13.29-21.78H60.21a3.09,3.09,0,0,1-3.24-3,3.15,3.15,0,0,1,3.24-3H76.13a3.25,3.25,0,0,1,3.43,3.14,3.65,3.65,0,0,1-.66,2L65.52,62.57H76.37a3,3,0,1,1,0,6.06Z"/>
    <path class="cls-3"
          d="M75,66.58H58.89a3.27,3.27,0,0,1-3.38-3.19,5.85,5.85,0,0,1,.66-2.07c4.6-7.6,8.64-14.08,13.29-21.78H58.84a3.08,3.08,0,0,1-3.23-3,3.14,3.14,0,0,1,3.23-3.05H74.77a3.25,3.25,0,0,1,3.42,3.14,3.65,3.65,0,0,1-.66,2L64.15,60.53H75a3,3,0,1,1,0,6Z"/>
</svg>
